X:1
T:Title
%%score [ ( 1 2 ) ( 3 4 ) ]
L:1/8
Q:1/4=120
M:4/4
K:C
V:1 treble nm="Midi_74"
V:2 treble 
V:3 treble nm="Midi_74"
V:4 treble 
V:1
 E8 | A4 ^G4 | A8 || B8 | c4 A4 | G4 F4 | E8 || E8 | E4 ^F4 | G8 || %10
"^Richard Thiele\n(1847-1903)" A8 | c4 d4 | c4 B4 | A8 |] %14
V:2
 C8 | E4 E4 | E8 || E8 | E4 F4 | D4 D4 | B,8 || C8 | C4 C4 | B,8 || C8 | E4 F4 | E4 (E2 D2) | C8 |] %14
V:3
 A,8 | A,4 B,4 | C8 || D8 | C4 C4 | B,4 A,4 | ^G,8 || !courtesy!=G,8 | A,4 A,4 | G,8 || E,8 | %11
 A,4 A,4 | A,4 ^G,4 | A,8 |] %14
V:4
 A,,8 | C,4 E,4 | A,,8 || ^G,,8 | A,,4 F,4 | B,,4 D,4 | E,8 || C,8 | A,,4 ^D,4 | E,8 || C,8 | %11
 A,,4 D,4 | E,4 E,4 | A,,8 |] %14

